icon/pk/circus.svg

<svg viewBox="0 0 48 48" fill="none" xmlns="http://www.w3.org/2000/svg" height="1em" width="1em">
  <path d="M9 26C9 26 8.92429 26.7867 8 31C7.02053 35.4648 4 44 4 44H44C44 44 40.9795 35.4648 40 31C39.0757 26.7867 39 26 39 26" stroke="black" stroke-width="4" stroke-linecap="round" stroke-linejoin="round"/>
  <path d="M20 28C21 37 16 44 16 44" stroke="black" stroke-width="4" stroke-linecap="round" stroke-linejoin="round"/>
  <path d="M28 28C27 37 32 44 32 44" stroke="black" stroke-width="4" stroke-linecap="round" stroke-linejoin="round"/>
  <path d="M6 18C6 18 13.5923 17.9452 17 17C19.8659 16.2051 24 14 24 14C24 14 27.8229 16.1944 30.5 17C34.0722 18.075 42 18 42 18L41 25C41 25 37 27 36 27C35 27 33 25 32 25C31 25 28.5 28 28 28C27.5 28 25 25 24 25C23 25 21 28.5 20 28.5C19 28.5 17 25 16 25C15.802 25 15.5257 25.0784 15.2098 25.2041C13.0681 26.0564 10.7214 26.4885 8.58115 25.6325L7 25L6 18Z" fill="#2F88FF" stroke="black" stroke-width="4" stroke-linecap="round" stroke-linejoin="round"/>
  <path d="M24 5V15" stroke="black" stroke-width="4" stroke-linecap="round"/>
  <path d="M36 10.9998V4.99984C36 4.99984 34.5 7.99984 30 4.99984C25.5 1.99984 24 4.99984 24 4.99984V10.9998C24 10.9998 25.5 7.99984 30 10.9998C34.5 13.9998 36 10.9998 36 10.9998Z" stroke="black" stroke-width="4" stroke-linecap="round" stroke-linejoin="round"/>
</svg>

<svg width="48" height="48" fill="none" xmlns="http://www.w3.org/2000/svg"><path d="M9 26s-.076.787-1 5c-.98 4.465-4 13-4 13h40s-3.02-8.535-4-13c-.924-4.213-1-5-1-5" stroke="#000" stroke-width="4" stroke-linecap="round" stroke-linejoin="round"/><path d="M20 28c1 9-4 16-4 16M28 28c-1 9 4 16 4 16" stroke="#000" stroke-width="4" stroke-linecap="round" stroke-linejoin="round"/><path d="M6 18s7.592-.055 11-1c2.866-.795 7-3 7-3s3.823 2.194 6.5 3c3.572 1.075 11.5 1 11.5 1l-1 7s-4 2-5 2-3-2-4-2-3.5 3-4 3-3-3-4-3-3 3.5-4 3.5-3-3.5-4-3.5c-.198 0-.474.078-.79.204-2.142.852-4.489 1.284-6.629.428L7 25l-1-7Z" fill="#2F88FF" stroke="#000" stroke-width="4" stroke-linecap="round" stroke-linejoin="round"/><path d="M24 5v10" stroke="#000" stroke-width="4" stroke-linecap="round"/><path d="M36 11V5s-1.5 3-6 0-6 0-6 0v6s1.5-3 6 0 6 0 6 0Z" stroke="#000" stroke-width="4" stroke-linecap="round" stroke-linejoin="round"/></svg>
